actions/22/format-add-node.svg

<svg xmlns="http://www.w3.org/2000/svg" viewBox="0 0 22 22">
  <defs id="defs3051">
    <style type="text/css" id="current-color-scheme">
      .ColorScheme-Text {
        color:#808080;
      }
      </style>
  </defs>
 <path 
    style="fill:currentColor;fill-opacity:1;stroke:none" 
	d="m4.5 3c-.831 0-1.5.669-1.5 1.5 0 .6542.418077 1.202203 1 1.408203v10.0918h-1v3h3v-1h7v-1h-7v-1h-1v-10.0918c.424456-.1503.756746-.485503.908203-.908203h10.0918v1h1v7h1v-7h1v-3h-3v1h-10.0918c-.206006-.5819-.753963-1-1.408203-1m0 1c.277 0 .5.223.5.5 0 .277-.223.5-.5.5-.277 0-.5-.223-.5-.5 0-.277.223-.5.5-.5m12.5 0h1v1h-1v-1m-1 10v2h-2v1h2v2h1v-2h2v-1h-2v-2h-1m-12 3h1v1h-1v-1" 
    class="ColorScheme-Text"
    />  
</svg>

<svg xmlns="http://www.w3.org/2000/svg" version="1.1" viewBox="0 0 22 22">
 <defs>
  <style id="current-color-scheme" type="text/css">
   .ColorScheme-Text { color:#808080; }
  </style>
 </defs>
 <path class="ColorScheme-Text" d="M 4.5,3 C 3.669,3 3,3.669 3,4.5 3,5.1542 3.4181,5.7022 4,5.9082 V 16 H 3 V 19 H 6 V 18 H 13 V 17 H 6 V 16 H 5 V 5.9082 C 5.4245,5.7579 5.7567,5.4227 5.9082,5 H 16 V 6 H 17 V 13 H 18 V 6 H 19 V 3 H 16 V 4 H 5.9082 C 5.7022,3.4181 5.1542,3 4.5,3 M 4.5,4 C 4.777,4 5,4.223 5,4.5 5,4.777 4.777,5 4.5,5 4.223,5 4,4.777 4,4.5 4,4.223 4.223,4 4.5,4 M 17,4 H 18 V 5 H 17 V 4 M 16,14 V 16 H 14 V 17 H 16 V 19 H 17 V 17 H 19 V 16 H 17 V 14 H 16 M 4,17 H 5 V 18 H 4 V 17" style="color:#808080;fill:currentColor"/>
</svg>
